icons/line-fill.svg

<svg xmlns="http://www.w3.org/2000/svg" width="24" height="24" fill="none"><g clip-path="url(#a)"><g><path fill="#121212" d="M18.663 10.84C18.6627 10.9794 18.6072 11.1129 18.5086 11.2113C18.41 11.3097 18.2763 11.365 18.137 11.365H16.675V12.303H18.137C18.2078 12.2999 18.2785 12.3112 18.3448 12.3362C18.4112 12.3611 18.4718 12.3993 18.5229 12.4483C18.5741 12.4973 18.6149 12.5562 18.6427 12.6213C18.6706 12.6865 18.6849 12.7566 18.6849 12.8275C18.6849 12.8984 18.6706 12.9685 18.6427 13.0337C18.6149 13.0989 18.5741 13.1578 18.5229 13.2068C18.4718 13.2558 18.4112 13.2939 18.3448 13.3189C18.2785 13.3438 18.2078 13.3551 18.137 13.352H16.15C16.0115 13.351 15.8791 13.2954 15.7813 13.1973C15.6836 13.0992 15.6285 12.9665 15.628 12.828V8.85202C15.628 8.56502 15.863 8.32702 16.153 8.32702H18.141C18.2802 8.32742 18.4136 8.38311 18.5118 8.48185C18.61 8.58059 18.6649 8.71428 18.6645 8.85352C18.6641 8.99276 18.6084 9.12614 18.5097 9.22431C18.4109 9.32249 18.2772 9.37742 18.138 9.37702H16.676V10.315H18.138C18.429 10.315 18.664 10.552 18.664 10.84H18.663ZM14.565 13.325C14.5113 13.342 14.4553 13.3504 14.399 13.35C14.3167 13.3518 14.2351 13.3339 14.1612 13.2977C14.0872 13.2615 14.0231 13.2081 13.974 13.142L11.938 10.378V12.828C11.928 12.96 11.8685 13.0834 11.7714 13.1734C11.6744 13.2634 11.5469 13.3134 11.4145 13.3134C11.2821 13.3134 11.1546 13.2634 11.0576 13.1734C10.9605 13.0834 10.901 12.96 10.891 12.828V8.85202C10.8907 8.71375 10.9453 8.58102 11.0428 8.48297C11.1403 8.38492 11.2727 8.32955 11.411 8.32902C11.573 8.32902 11.723 8.41502 11.823 8.54002L13.875 11.315V8.85202C13.875 8.56502 14.11 8.32702 14.4 8.32702C14.687 8.32702 14.925 8.56502 14.925 8.85202V12.828C14.9249 12.9382 14.89 13.0455 14.8254 13.1347C14.7607 13.224 14.6696 13.2905 14.565 13.325ZM9.615 13.352C9.47636 13.3512 9.34364 13.2957 9.2457 13.1976C9.14776 13.0995 9.09253 12.9667 9.092 12.828V8.85202C9.092 8.56502 9.328 8.32702 9.617 8.32702C9.906 8.32702 10.141 8.56502 10.141 8.85202V12.828C10.1402 12.9671 10.0845 13.1002 9.98594 13.1984C9.88741 13.2965 9.75408 13.3518 9.615 13.352ZM8.085 13.352H6.098C5.95918 13.3512 5.82625 13.2958 5.72799 13.1977C5.62973 13.0997 5.57405 12.9668 5.573 12.828V8.85202C5.58447 8.72069 5.64475 8.59843 5.74194 8.50937C5.83913 8.4203 5.96617 8.37089 6.098 8.37089C6.22983 8.37089 6.35687 8.4203 6.45406 8.50937C6.55125 8.59843 6.61153 8.72069 6.623 8.85202V12.302H8.087C8.22624 12.302 8.35977 12.3573 8.45823 12.4558C8.55669 12.5542 8.612 12.6878 8.612 12.827C8.612 12.9663 8.55669 13.0998 8.45823 13.1983C8.35977 13.2967 8.22624 13.352 8.087 13.352H8.085ZM12 2.57202C6.487 2.57202 2 6.21502 2 10.69C2 14.7 5.558 18.059 10.363 18.697C10.688 18.765 11.132 18.912 11.244 19.189C11.344 19.439 11.31 19.827 11.276 20.089L11.139 20.939C11.102 21.189 10.939 21.927 12.013 21.476C13.089 21.027 17.777 18.078 19.877 15.664C21.313 14.089 22 12.477 22 10.69C22 6.21502 17.512 2.57202 12 2.57202Z"/></g></g><defs><clipPath id="a"><rect width="24" height="24" fill="white"/></clipPath></defs></svg>

<svg width="24" height="24" fill="none" xmlns="http://www.w3.org/2000/svg"><g clip-path="url(#a)"><path d="M18.663 10.84a.526.526 0 0 1-.526.525h-1.462v.938h1.462a.524.524 0 1 1 0 1.049H16.15a.526.526 0 0 1-.522-.524V8.852c0-.287.235-.525.525-.525h1.988a.525.525 0 0 1-.003 1.05h-1.462v.938h1.462c.291 0 .526.237.526.525h-.001Zm-4.098 2.485a.537.537 0 0 1-.166.025.515.515 0 0 1-.425-.208l-2.036-2.764v2.45a.525.525 0 0 1-1.047 0V8.852a.522.522 0 0 1 .52-.523c.162 0 .312.086.412.211l2.052 2.775V8.852c0-.287.235-.525.525-.525.287 0 .525.238.525.525v3.976a.524.524 0 0 1-.36.497Zm-4.95.027a.526.526 0 0 1-.523-.524V8.852c0-.287.236-.525.525-.525.289 0 .524.238.524.525v3.976a.527.527 0 0 1-.526.524Zm-1.53 0H6.098a.528.528 0 0 1-.525-.524V8.852a.527.527 0 0 1 1.05 0v3.45h1.464a.525.525 0 1 1 0 1.05h-.002ZM12 2.572c-5.513 0-10 3.643-10 8.118 0 4.01 3.558 7.369 8.363 8.007.325.068.769.215.881.492.1.25.066.638.032.9l-.137.85c-.037.25-.2.988.874.537 1.076-.449 5.764-3.398 7.864-5.812C21.313 14.089 22 12.477 22 10.69c0-4.475-4.488-8.118-10-8.118Z" /></g><defs><clipPath id="a"><path fill="#fff" d="M0 0h24v24H0z"/></clipPath></defs></svg>
